Numix-GalliumOS/16/devices/gnome-dev-pcmcia.svg

<?xml version="1.0" encoding="UTF-8" standalone="no"?>
<svg
   xmlns:dc="http://purl.org/dc/elements/1.1/"
   xmlns:cc="http://creativecommons.org/ns#"
   xmlns:rdf="http://www.w3.org/1999/02/22-rdf-syntax-ns#"
   xmlns:svg="http://www.w3.org/2000/svg"
   xmlns="http://www.w3.org/2000/svg"
   xmlns:xlink="http://www.w3.org/1999/xlink"
   xmlns:sodipodi="http://sodipodi.sourceforge.net/DTD/sodipodi-0.dtd"
   xmlns:inkscape="http://www.inkscape.org/namespaces/inkscape"
   width="16"
   height="16"
   viewBox="0 0 16 16"
   id="svg1594"
   version="1.1"
   inkscape:version="0.91 r"
   sodipodi:docname="gnome-dev-pcmcia.svg">
  <metadata
     id="metadata1694">
    <rdf:RDF>
      <cc:Work
         rdf:about="">
        <dc:format>image/svg+xml</dc:format>
        <dc:type
           rdf:resource="http://purl.org/dc/dcmitype/StillImage" />
      </cc:Work>
    </rdf:RDF>
  </metadata>
  <sodipodi:namedview
     pagecolor="#ffffff"
     bordercolor="#666666"
     borderopacity="1"
     objecttolerance="10"
     gridtolerance="10"
     guidetolerance="10"
     inkscape:pageopacity="0"
     inkscape:pageshadow="2"
     inkscape:window-width="640"
     inkscape:window-height="480"
     id="namedview1692" />
  <defs
     id="defs1596">
    <clipPath
       id="clip1">
      <rect
         width="16"
         height="16"
         id="rect1599" />
    </clipPath>
    <filter
       width="100%"
       x="0"
       y="0"
       height="100%"
       filterUnits="objectBoundingBox"
       id="alpha">
      <feColorMatrix
         values="0 0 0 0 1 0 0 0 0 1 0 0 0 0 1 0 0 0 1 0"
         in="SourceGraphic"
         type="matrix"
         id="feColorMatrix1602" />
    </filter>
    <g
       style="clip-path:url(#clip1)"
       id="surface6"
       clip-path="url(#clip1)">
      <path
         style="fill:url(#radial0)"
         d="M 3.050781 13.667969 L 0 13.667969 L 0 11.667969 L 3.050781 11.667969 Z "
         id="path1605" />
      <path
         style="fill:url(#radial1)"
         d="M 11.285156 11.667969 L 14.332031 11.667969 L 14.332031 13.667969 L 11.285156 13.667969 Z "
         id="path1607" />
      <path
         style="fill:url(#linear0)"
         d="M 3.050781 11.667969 L 11.285156 11.667969 L 11.285156 13.667969 L 3.050781 13.667969 Z "
         id="path1609" />
    </g>
    <linearGradient
       id="linear1"
       y1="13"
       y2="38"
       gradientUnits="userSpaceOnUse"
       x2="0">
      <stop
         offset="0"
         style="stop-color:#fff;stop-opacity:.6"
         id="stop1612" />
      <stop
         offset="1"
         style="stop-color:#fff;stop-opacity:0"
         id="stop1614" />
    </linearGradient>
    <linearGradient
       gradientTransform="scale(.33333)"
       id="linear3"
       y1="24"
       y2="28"
       gradientUnits="userSpaceOnUse"
       x2="0">
      <stop
         offset="0"
         style="stop-color:#ecd562"
         id="stop1617" />
      <stop
         offset="1"
         style="stop-color:#df8122"
         id="stop1619" />
    </linearGradient>
    <linearGradient
       gradientTransform="matrix(.30496 0 0 .25 -.30496 1.66667)"
       id="linear0"
       y1="48.001"
       y2="40"
       gradientUnits="userSpaceOnUse"
       x2="0">
      <stop
         offset="0"
         style="stop-color:#000;stop-opacity:0"
         id="stop1622" />
      <stop
         offset=".5"
         style="stop-color:#000"
         id="stop1624" />
      <stop
         offset="1"
         style="stop-color:#000;stop-opacity:0"
         id="stop1626" />
    </linearGradient>
    <linearGradient
       id="linear2"
       y1="17"
       y2="18"
       gradientUnits="userSpaceOnUse"
       x2="0">
      <stop
         offset="0"
         style="stop-color:#fdfdfd"
         id="stop1629" />
      <stop
         offset="1"
         style="stop-color:#9f9f9f"
         id="stop1631" />
    </linearGradient>
    <mask
       id="mask0">
      <g
         style="filter:url(#alpha)"
         id="g1634">
        <rect
           width="16"
           x="0"
           y="0"
           height="16"
           style="fill:#000;fill-opacity:.302"
           id="rect1636" />
      </g>
    </mask>
    <radialGradient
       cx="9.286"
       cy="18.037"
       gradientTransform="matrix(2.65854 -.03734 .0168 1.19584 -15.70336 .10714)"
       id="radial3"
       r="17"
       gradientUnits="userSpaceOnUse">
      <stop
         offset="0"
         style="stop-color:#efefef"
         id="stop1639" />
      <stop
         offset="1"
         style="stop-color:#c8c8c8"
         id="stop1641" />
    </radialGradient>
    <radialGradient
       cx="12.156"
       cy="40.48"
       gradientTransform="matrix(1.81157 -.03214 .02008 1.13174 -10.67818 -10.72976)"
       id="radial2"
       r="22"
       gradientUnits="userSpaceOnUse">
      <stop
         offset="0"
         style="stop-color:#efefef"
         id="stop1644" />
      <stop
         offset="1"
         style="stop-color:#c8c8c8"
         id="stop1646" />
    </radialGradient>
    <radialGradient
       cx="1"
       cy="44"
       gradientTransform="matrix(.60993 0 0 .2 10.67372 3.86667)"
       id="radial1"
       r="5"
       gradientUnits="userSpaceOnUse">
      <stop
         offset="0"
         style="stop-color:#000"
         id="stop1649" />
      <stop
         offset="1"
         style="stop-color:#000;stop-opacity:0"
         id="stop1651" />
    </radialGradient>
    <radialGradient
       cx="1"
       cy="44"
       gradientTransform="matrix(-.60993 0 0 -.2 3.65956 21.46667)"
       id="radial0"
       r="5"
       gradientUnits="userSpaceOnUse">
      <stop
         offset="0"
         style="stop-color:#000"
         id="stop1654" />
      <stop
         offset="1"
         style="stop-color:#000;stop-opacity:0"
         id="stop1656" />
    </radialGradient>
  </defs>
  <use
     style="mask:url(#mask0)"
     xlink:href="#surface6"
     id="use1658"
     mask="url(#mask0)" />
  <g
     style="stroke-linecap:round"
     id="g1660">
    <path
       style="fill:url(#radial2);stroke:#8c8c8c"
       d="M 3.503906 12.503906 C 2.941406 12.503906 2.496094 12.949219 2.496094 13.5 L 2.496094 37.5 C 2.496094 38.050781 2.941406 38.496094 3.503906 38.496094 L 38.496094 38.496094 C 39.058594 38.496094 39.503906 38.050781 39.503906 37.5 C 39.480469 36.996094 39.996094 36.515625 40.5 36.503906 L 44.496094 36.503906 C 45.058594 36.503906 45.503906 36.058594 45.503906 35.496094 L 45.503906 15.503906 C 45.503906 14.941406 45.058594 14.496094 44.496094 14.496094 L 40.5 14.496094 C 39.996094 14.496094 39.527344 14.003906 39.503906 13.5 C 39.503906 12.949219 39.058594 12.503906 38.496094 12.503906 Z "
       transform="scale(.33333)"
       id="path1662" />
    <path
       style="fill:none;stroke:url(#linear1)"
       d="M 3.503906 13.464844 C 3.46875 13.464844 3.46875 13.464844 3.46875 13.5 L 3.46875 37.5 C 3.46875 37.535156 3.46875 37.535156 3.503906 37.535156 L 38.496094 37.535156 C 38.519531 37.535156 38.53125 37.535156 38.53125 37.535156 C 38.53125 37.523438 38.53125 37.511719 38.53125 37.5 C 38.519531 36.925781 38.789062 36.457031 39.128906 36.128906 C 39.46875 35.789062 39.914062 35.542969 40.464844 35.53125 C 40.476562 35.53125 40.488281 35.53125 40.5 35.53125 L 44.496094 35.53125 C 44.53125 35.53125 44.53125 35.53125 44.53125 35.496094 L 44.53125 15.503906 C 44.53125 15.46875 44.53125 15.46875 44.496094 15.46875 L 40.5 15.46875 C 39.925781 15.46875 39.457031 15.210938 39.128906 14.871094 C 38.789062 14.53125 38.566406 14.097656 38.53125 13.558594 C 38.53125 13.546875 38.53125 13.523438 38.53125 13.5 C 38.53125 13.464844 38.53125 13.464844 38.496094 13.464844 Z "
       transform="scale(.33333)"
       id="path1664" />
    <path
       style="fill:url(#radial3);stroke:url(#linear2)"
       d="M 3.503906 16.5 L 35.496094 16.5 C 36.058594 16.5 36.503906 16.945312 36.503906 17.496094 L 36.503906 33.503906 C 36.503906 34.054688 36.058594 34.5 35.496094 34.5 L 3.503906 34.5 "
       transform="scale(.33333)"
       id="path1666" />
  </g>
  <g
     style="fill:#d6b943"
     id="g1668">
    <path
       d="M 2.667969 4.34375 L 6 4.34375 L 6 4.667969 L 2.667969 4.667969 Z "
       id="path1670" />
    <path
       d="M 2.667969 12.34375 L 6 12.34375 L 6 12.667969 L 2.667969 12.667969 Z "
       id="path1672" />
  </g>
  <path
     style="fill:#606060"
     d="M 3.667969 6.332031 L 11 6.332031 C 11.183594 6.332031 11.332031 6.484375 11.332031 6.667969 L 11.332031 10.332031 C 11.332031 10.515625 11.183594 10.667969 11 10.667969 L 3.667969 10.667969 C 3.484375 10.667969 3.332031 10.515625 3.332031 10.332031 L 3.332031 6.667969 C 3.332031 6.484375 3.484375 6.332031 3.667969 6.332031 Z "
     id="path1674" />
  <path
     style="fill:url(#linear3)"
     d="M 5.332031 8.332031 L 11 8.332031 L 11 9 L 5.332031 9 Z "
     id="path1676" />
  <g
     style="fill:#fff"
     id="g1678">
    <path
       d="M 5.332031 9.34375 L 5.816406 9.34375 C 5.921875 9.34375 6 9.371094 6.050781 9.421875 C 6.105469 9.472656 6.128906 9.546875 6.128906 9.640625 C 6.128906 9.742188 6.101562 9.816406 6.042969 9.871094 C 5.988281 9.925781 5.902344 9.957031 5.785156 9.957031 L 5.625 9.957031 L 5.625 10.316406 L 5.332031 10.316406 L 5.332031 9.34375 M 5.625 9.757812 L 5.695312 9.757812 C 5.753906 9.757812 5.792969 9.75 5.8125 9.726562 C 5.835938 9.707031 5.847656 9.683594 5.847656 9.652344 C 5.847656 9.621094 5.839844 9.59375 5.820312 9.574219 C 5.800781 9.550781 5.761719 9.542969 5.707031 9.542969 L 5.625 9.542969 L 5.625 9.757812 "
       id="path1680" />
    <path
       d="M 6.910156 9.917969 L 7.164062 10 C 7.144531 10.070312 7.117188 10.132812 7.082031 10.183594 C 7.046875 10.234375 7 10.269531 6.945312 10.296875 C 6.890625 10.320312 6.820312 10.332031 6.738281 10.332031 C 6.636719 10.332031 6.550781 10.316406 6.488281 10.289062 C 6.421875 10.257812 6.367188 10.203125 6.320312 10.125 C 6.273438 10.046875 6.25 9.949219 6.25 9.828125 C 6.25 9.667969 6.289062 9.542969 6.371094 9.457031 C 6.457031 9.371094 6.574219 9.328125 6.722656 9.328125 C 6.84375 9.328125 6.933594 9.351562 7.003906 9.402344 C 7.070312 9.449219 7.121094 9.527344 7.152344 9.628906 L 6.898438 9.6875 C 6.890625 9.660156 6.878906 9.636719 6.871094 9.625 C 6.851562 9.601562 6.832031 9.582031 6.808594 9.570312 C 6.785156 9.558594 6.761719 9.550781 6.730469 9.550781 C 6.664062 9.550781 6.613281 9.578125 6.578125 9.632812 C 6.554688 9.675781 6.539062 9.738281 6.539062 9.824219 C 6.539062 9.933594 6.554688 10.007812 6.585938 10.046875 C 6.621094 10.085938 6.664062 10.109375 6.722656 10.109375 C 6.777344 10.109375 6.816406 10.089844 6.847656 10.058594 C 6.875 10.027344 6.894531 9.980469 6.910156 9.917969 "
       id="path1682" />
    <path
       d="M 7.300781 9.34375 L 7.683594 9.34375 L 7.828125 9.933594 L 7.976562 9.34375 L 8.355469 9.34375 L 8.355469 10.316406 L 8.121094 10.316406 L 8.121094 9.574219 L 7.9375 10.316406 L 7.722656 10.316406 L 7.539062 9.574219 L 7.539062 10.316406 L 7.300781 10.316406 L 7.300781 9.34375 "
       id="path1684" />
    <path
       d="M 9.167969 9.917969 L 9.421875 10 C 9.40625 10.070312 9.378906 10.132812 9.339844 10.183594 C 9.304688 10.234375 9.257812 10.269531 9.203125 10.296875 C 9.148438 10.320312 9.082031 10.332031 8.996094 10.332031 C 8.894531 10.332031 8.808594 10.316406 8.746094 10.289062 C 8.679688 10.257812 8.625 10.203125 8.578125 10.125 C 8.53125 10.046875 8.507812 9.949219 8.507812 9.828125 C 8.507812 9.667969 8.550781 9.542969 8.632812 9.457031 C 8.714844 9.371094 8.832031 9.328125 8.984375 9.328125 C 9.101562 9.328125 9.195312 9.351562 9.261719 9.402344 C 9.328125 9.449219 9.378906 9.527344 9.414062 9.628906 L 9.15625 9.6875 C 9.148438 9.660156 9.136719 9.636719 9.128906 9.625 C 9.113281 9.601562 9.09375 9.582031 9.070312 9.570312 C 9.046875 9.558594 9.019531 9.550781 8.988281 9.550781 C 8.921875 9.550781 8.875 9.578125 8.839844 9.632812 C 8.8125 9.675781 8.796875 9.738281 8.796875 9.824219 C 8.796875 9.933594 8.8125 10.007812 8.847656 10.046875 C 8.878906 10.085938 8.921875 10.109375 8.980469 10.109375 C 9.035156 10.109375 9.078125 10.089844 9.105469 10.058594 C 9.132812 10.027344 9.15625 9.980469 9.167969 9.917969 "
       id="path1686" />
    <path
       d="M 9.574219 9.34375 L 9.863281 9.34375 L 9.863281 10.316406 L 9.574219 10.316406 L 9.574219 9.34375 "
       id="path1688" />
    <path
       d="M 10.648438 10.15625 L 10.320312 10.15625 L 10.273438 10.316406 L 9.976562 10.316406 L 10.332031 9.34375 L 10.648438 9.34375 L 11 10.316406 L 10.695312 10.316406 L 10.648438 10.15625 M 10.589844 9.945312 L 10.484375 9.59375 L 10.382812 9.945312 L 10.589844 9.945312 "
       id="path1690" />
  </g>
</svg>

<svg xmlns="http://www.w3.org/2000/svg" xmlns:xlink="http://www.w3.org/1999/xlink" viewBox="0 0 16 16">
 <defs>
  <filter width="16" x="0" y="0" height="16" filterUnits="objectBoundingBox" id="alpha">
   <feColorMatrix values="0 0 0 0 1 0 0 0 0 1 0 0 0 0 1 0 0 0 1 0" in="SourceGraphic" type="matrix"/>
  </filter>
  <g id="surface6">
   <path d="m 3.051 13.668 l -3.051 0 l 0 -2 l 3.051 0 Z" style="fill:url(#radial0)"/>
   <path d="m 11.285 11.668 l 3.047 0 l 0 2 l -3.047 0 Z" style="fill:url(#radial1)"/>
   <path d="m 3.051 11.668 l 8.234 0 l 0 2 l -8.234 0 Z" style="fill:url(#linear0)"/>
  </g>
  <linearGradient id="linear1" y1="13" y2="38" gradientUnits="userSpaceOnUse" x2="0">
   <stop style="stop-color:#fff;stop-opacity:0.6"/>
   <stop offset="1" style="stop-color:#fff;stop-opacity:0"/>
  </linearGradient>
  <linearGradient gradientTransform="scale(.33333)" id="linear3" y1="24" y2="28" gradientUnits="userSpaceOnUse" x2="0">
   <stop style="stop-color:#ecd562"/>
   <stop offset="1" style="stop-color:#df8122"/>
  </linearGradient>
  <linearGradient gradientTransform="matrix(.30496 0 0 .25 -.30496 1.66667)" id="linear0" y1="48" y2="40" gradientUnits="userSpaceOnUse" x2="0">
   <stop style="stop-color:#000;stop-opacity:0"/>
   <stop offset="0.5" style="stop-color:#000"/>
   <stop offset="1" style="stop-color:#000;stop-opacity:0"/>
  </linearGradient>
  <linearGradient id="linear2" y1="17" y2="18" gradientUnits="userSpaceOnUse" x2="0">
   <stop style="stop-color:#fdfdfd"/>
   <stop offset="1" style="stop-color:#9f9f9f"/>
  </linearGradient>
  <mask id="mask0">
   <g style="filter:url(#alpha)">
    <rect width="16" height="16" style="fill:#000;fill-opacity:0.302"/>
   </g>
  </mask>
  <radialGradient cx="9.286" cy="18.04" gradientTransform="matrix(2.65854 -.03734 .0168 1.19584 -15.70336 .10714)" id="radial3" r="17" gradientUnits="userSpaceOnUse">
   <stop style="stop-color:#efefef"/>
   <stop offset="1" style="stop-color:#c8c8c8"/>
  </radialGradient>
  <radialGradient cx="12.156" cy="40.48" gradientTransform="matrix(1.81157 -.03214 .02008 1.13174 -10.67818 -10.72976)" id="radial2" r="22" gradientUnits="userSpaceOnUse" xlink:href="#radial3"/>
  <radialGradient cx="1" cy="44" gradientTransform="matrix(.60993 0 0 .2 10.67372 3.86667)" id="radial1" r="5" gradientUnits="userSpaceOnUse">
   <stop style="stop-color:#000"/>
   <stop offset="1" style="stop-color:#000;stop-opacity:0"/>
  </radialGradient>
  <radialGradient cx="1" cy="44" gradientTransform="matrix(-.60993 0 0 -.2 3.65956 21.46667)" id="radial0" r="5" gradientUnits="userSpaceOnUse" xlink:href="#radial1"/>
 </defs>
 <use xlink:href="#surface6" style="mask:url(#mask0)"/>
 <g style="stroke-linecap:round">
  <path d="m 3.504 12.504 c -0.563 0 -1.01 0.445 -1.01 0.996 l 0 24 c 0 0.551 0.445 0.996 1.01 0.996 l 34.992 0 c 0.563 0 1.01 -0.445 1.01 -0.996 c -0.023 -0.504 0.492 -0.984 0.996 -0.996 l 3.996 0 c 0.563 0 1.01 -0.445 1.01 -1.01 l 0 -19.992 c 0 -0.563 -0.445 -1.01 -1.01 -1.01 l -3.996 0 c -0.504 0 -0.973 -0.492 -0.996 -0.996 c 0 -0.551 -0.445 -0.996 -1.01 -0.996 Z" transform="scale(.33333)" style="fill:url(#radial2);stroke:#8c8c8c"/>
  <path d="m 3.504 13.465 c -0.035 0 -0.035 0 -0.035 0.035 l 0 24 c 0 0.035 0 0.035 0.035 0.035 l 34.992 0 c 0.023 0 0.035 0 0.035 0 c 0 -0.012 0 -0.023 0 -0.035 c -0.012 -0.574 0.258 -1.043 0.598 -1.371 c 0.34 -0.34 0.785 -0.586 1.336 -0.598 c 0.012 0 0.023 0 0.035 0 l 3.996 0 c 0.035 0 0.035 0 0.035 -0.035 l 0 -19.992 c 0 -0.035 0 -0.035 -0.035 -0.035 l -3.996 0 c -0.574 0 -1.043 -0.258 -1.371 -0.598 c -0.34 -0.34 -0.563 -0.773 -0.598 -1.313 c 0 -0.012 0 -0.035 0 -0.059 c 0 -0.035 0 -0.035 -0.035 -0.035 Z" transform="scale(.33333)" style="fill:none;stroke:url(#linear1)"/>
  <path d="m 3.504 16.5 l 31.992 0 c 0.563 0 1.01 0.445 1.01 0.996 l 0 16.01 c 0 0.551 -0.445 0.996 -1.01 0.996 l -31.992 0" transform="scale(.33333)" style="fill:url(#radial3);stroke:url(#linear2)"/>
 </g>
 <g style="fill:#d6b943">
  <path d="m 2.668 4.344 l 3.332 0 l 0 0.324 l -3.332 0 Z"/>
  <path d="m 2.668 12.344 l 3.332 0 l 0 0.324 l -3.332 0 Z"/>
 </g>
 <path d="m 3.668 6.332 l 7.332 0 c 0.184 0 0.332 0.152 0.332 0.336 l 0 3.664 c 0 0.184 -0.148 0.336 -0.332 0.336 l -7.332 0 c -0.184 0 -0.336 -0.152 -0.336 -0.336 l 0 -3.664 c 0 -0.184 0.152 -0.336 0.336 -0.336 Z" style="fill:#606060"/>
 <path d="m 5.332 8.332 l 5.668 0 l 0 0.668 l -5.668 0 Z" style="fill:url(#linear3)"/>
 <g style="fill:#fff">
  <path d="m 5.332 9.344 l 0.484 0 c 0.105 0 0.184 0.027 0.234 0.078 c 0.055 0.051 0.078 0.125 0.078 0.219 c 0 0.102 -0.027 0.176 -0.086 0.23 c -0.055 0.055 -0.141 0.086 -0.258 0.086 l -0.16 0 l 0 0.359 l -0.293 0 l 0 -0.973 m 0.293 0.414 l 0.07 0 c 0.059 0 0.098 -0.008 0.117 -0.031 c 0.023 -0.02 0.035 -0.043 0.035 -0.074 c 0 -0.031 -0.008 -0.059 -0.027 -0.078 c -0.02 -0.023 -0.059 -0.031 -0.113 -0.031 l -0.082 0 l 0 0.215"/>
  <path d="m 6.91 9.918 l 0.254 0.082 c -0.02 0.07 -0.047 0.133 -0.082 0.184 c -0.035 0.051 -0.082 0.086 -0.137 0.113 c -0.055 0.023 -0.125 0.035 -0.207 0.035 c -0.102 0 -0.188 -0.016 -0.25 -0.043 c -0.066 -0.031 -0.121 -0.086 -0.168 -0.164 c -0.047 -0.078 -0.07 -0.176 -0.07 -0.297 c 0 -0.16 0.039 -0.285 0.121 -0.371 c 0.086 -0.086 0.203 -0.129 0.352 -0.129 c 0.121 0 0.211 0.023 0.281 0.074 c 0.066 0.047 0.117 0.125 0.148 0.227 l -0.254 0.059 c -0.008 -0.027 -0.02 -0.051 -0.027 -0.063 c -0.02 -0.023 -0.039 -0.043 -0.063 -0.055 c -0.023 -0.012 -0.047 -0.02 -0.078 -0.02 c -0.066 0 -0.117 0.027 -0.152 0.082 c -0.023 0.043 -0.039 0.105 -0.039 0.191 c 0 0.109 0.016 0.184 0.047 0.223 c 0.035 0.039 0.078 0.063 0.137 0.063 c 0.055 0 0.094 -0.02 0.125 -0.051 c 0.027 -0.031 0.047 -0.078 0.063 -0.141"/>
  <path d="m 7.301 9.344 l 0.383 0 l 0.145 0.59 l 0.148 -0.59 l 0.379 0 l 0 0.973 l -0.234 0 l 0 -0.742 l -0.184 0.742 l -0.215 0 l -0.184 -0.742 l 0 0.742 l -0.238 0 l 0 -0.973"/>
  <path d="m 9.168 9.918 l 0.254 0.082 c -0.016 0.07 -0.043 0.133 -0.082 0.184 c -0.035 0.051 -0.082 0.086 -0.137 0.113 c -0.055 0.023 -0.121 0.035 -0.207 0.035 c -0.102 0 -0.188 -0.016 -0.25 -0.043 c -0.066 -0.031 -0.121 -0.086 -0.168 -0.164 c -0.047 -0.078 -0.07 -0.176 -0.07 -0.297 c 0 -0.16 0.043 -0.285 0.125 -0.371 c 0.082 -0.086 0.199 -0.129 0.352 -0.129 c 0.117 0 0.211 0.023 0.277 0.074 c 0.066 0.047 0.117 0.125 0.152 0.227 l -0.258 0.059 c -0.008 -0.027 -0.02 -0.051 -0.027 -0.063 c -0.016 -0.023 -0.035 -0.043 -0.059 -0.055 c -0.023 -0.012 -0.051 -0.02 -0.082 -0.02 c -0.066 0 -0.113 0.027 -0.148 0.082 c -0.027 0.043 -0.043 0.105 -0.043 0.191 c 0 0.109 0.016 0.184 0.051 0.223 c 0.031 0.039 0.074 0.063 0.133 0.063 c 0.055 0 0.098 -0.02 0.125 -0.051 c 0.027 -0.031 0.051 -0.078 0.063 -0.141"/>
  <path d="m 9.574 9.344 l 0.289 0 l 0 0.973 l -0.289 0 l 0 -0.973"/>
  <path d="m 10.648 10.156 l -0.328 0 l -0.047 0.16 l -0.297 0 l 0.355 -0.973 l 0.316 0 l 0.352 0.973 l -0.305 0 l -0.047 -0.16 m -0.059 -0.211 l -0.105 -0.352 l -0.102 0.352 l 0.207 0"/>
 </g>
</svg>
